X:127
T:Steirer
C:traditionell
R:Steirer
B:"Hundert Steirer aus dem Ausseerland", F .Hofer, Steirisches Volksliedwerk, Graz, undated,
N:im buch in F, nr. 15
Z:abc transcription Simon Wascher
F:http://simonwascher.info/TradArchiv/
M:3/4
L:1/8
K:C
V:1
%violino 1mo
c2 e2 c2 | B2 d2 g2 | g3 f B2 | c2 e2 g2 |\
g3 f c2 | B2 d2 g2 | g3 f B2 | c6 :|
V:2
%violino 2do
E2 c2 E2 | F2 B2 f2 | f3 B F2 | E2 G2 c2 |\
c3 G E2 | F2 B2 f2 | f3 B F2 | E6 :|
